packages/components/icon/src/assets/icons/activity.svg

<svg width="24" height="24" viewBox="0 0 24 24" fill="none" xmlns="http://www.w3.org/2000/svg">
<path fill-rule="evenodd" clip-rule="evenodd" d="M13.9529 7.58672C14.0614 7.19623 14.3217 6.97928 14.582 6.97928C14.8207 6.97928 15.0593 7.17453 15.1895 7.54334L16.8382 11.2964H20.8951V13.4659H15.9054C15.5583 13.4659 15.1678 13.1838 15.0593 12.8584L14.7339 11.8822L12.2824 20.9938C12.1957 21.3409 11.9787 21.5144 11.7401 21.5144C11.5231 21.5144 11.2845 21.3409 11.1977 20.9938L8.44255 9.9514L7.77003 12.8367C7.68325 13.1838 7.33614 13.4659 6.96734 13.4659H2.67188V11.2964H5.92601L7.8785 3.85531C7.98697 3.46481 8.22561 3.29126 8.44255 3.29126C8.68119 3.29126 8.91982 3.46481 9.0066 3.85531L11.7835 14.6157L13.9529 7.58672Z" fill="currentColor"/>
</svg>

<svg viewBox="0 0 24 24" fill="none" xmlns="http://www.w3.org/2000/svg"><path fill-rule="evenodd" clip-rule="evenodd" d="M13.953 7.587c.108-.39.369-.608.629-.608.239 0 .477.196.607.564l1.65 3.753h4.056v2.17h-4.99c-.347 0-.737-.282-.846-.608l-.325-.976-2.452 9.112c-.086.347-.303.52-.542.52-.217 0-.456-.173-.542-.52L8.443 9.95l-.673 2.886a.86.86 0 0 1-.803.629H2.672v-2.17h3.254l1.952-7.44c.109-.391.348-.565.565-.565.238 0 .477.174.564.564l2.777 10.76 2.169-7.028Z" fill="currentColor"/></svg>
